assets/badgeStatistic.svg

<svg width="50" height="51" viewBox="0 0 50 51" fill="none" xmlns="http://www.w3.org/2000/svg">
<rect y="0.723633" width="50" height="50" rx="25" fill="#E8F2EE"/>
<path d="M16.8333 15.2236V33.8903H35.5V36.2236H14.5V15.2236H16.8333ZM34.6752 19.0655L36.3248 20.7151L29.6667 27.3733L26.1667 23.8745L21.1582 28.8818L19.5085 27.2321L26.1667 20.574L29.6667 24.0728L34.6752 19.0655Z" fill="#5BB5A2"/>
</svg>

<svg xmlns="http://www.w3.org/2000/svg" width="50" height="51" fill="none"><rect width="50" height="50" y=".724" fill="#E8F2EE" rx="25"/><path fill="#5BB5A2" d="M16.833 15.224V33.89H35.5v2.334h-21v-21h2.333Zm17.842 3.841 1.65 1.65-6.658 6.658-3.5-3.498-5.009 5.007-1.65-1.65 6.659-6.658 3.5 3.499 5.008-5.008Z"/></svg>
